X:1
T: Dancing the Baby
C:
R:Reel
Q: 232
K:D
M:4/4
L:1/8
A2 FA A2 GA|A2 FA A2 GF|E2 FA A2 GA|A2 D2 DE FE|E2 FA A2 GA|A2 FA A2 GF|E2 D3F E3F|D2 D2 D2 A2|
dF F2 AF F2|dF F2 GF E2|dF F2 AF F2|D2 DE FE E2|dF F2 AF F2|dF F2 GF E2|D3F E3F|D2 D2 D2 z2|
fa a2 ga a2|fa a2 gf e2|fa a2 gb ag|fe d2 cB A2|fa a2 ga a2|fa a2 gf e2|d3f e3f|d2 d2 d2 z2|
fa a2 ga a2|fa a2 gf e2|fa a2 gb ag|fe d2 cB A2|fa a2 ga a2|fa a2 gf e2|d3f e3f|d2 d2 d2||
